public/logos/LR.svg

<?xml version="1.0" encoding="UTF-8"?>
<svg xmlns="http://www.w3.org/2000/svg" xmlns:xlink="http://www.w3.org/1999/xlink" width="139.9pt" height="59pt" viewBox="0 0 139.9 59" version="1.1">
<defs>
<clipPath id="clip1">
  <path d="M 104 12 L 139.898438 12 L 139.898438 31 L 104 31 Z M 104 12 "/>
</clipPath>
</defs>
<g id="surface1">
<path style=" stroke:none;fill-rule:evenodd;fill:rgb(46.798706%,14.450073%,22.613525%);fill-opacity:1;" d="M 117.144531 11.011719 C 107.152344 9.152344 96.96875 5.210938 88.605469 0 C 89.707031 9.78125 109.847656 11.652344 117.144531 11.011719 "/>
<path style=" stroke:none;fill-rule:evenodd;fill:rgb(78.140259%,9.883118%,23.38562%);fill-opacity:1;" d="M 101.65625 14.632812 C 105.988281 14.75 118.121094 13.191406 121.324219 11.808594 C 112.414062 12.367188 107.664062 12.515625 102.480469 12.039062 C 97.304688 11.566406 92.816406 11.683594 85.699219 9.519531 C 87.625 13.902344 96.050781 14.632812 101.65625 14.632812 "/>
<path style=" stroke:none;fill-rule:evenodd;fill:rgb(78.140259%,9.883118%,23.38562%);fill-opacity:1;" d="M 93.628906 22.164062 C 94.59375 24.726562 109.503906 18.527344 110.652344 18.082031 C 112.28125 17.445312 124.777344 12.101562 126.011719 11.96875 C 124.210938 11.546875 113.191406 15.179688 106.746094 17.289062 C 104.902344 17.890625 94.855469 21.585938 93.628906 22.164062 "/>
<path style=" stroke:none;fill-rule:evenodd;fill:rgb(15.214539%,25.061035%,54.411316%);fill-opacity:1;" d="M 57.113281 11.496094 C 49.980469 9.640625 39.933594 10.371094 39.941406 18.296875 C 39.945312 25.332031 48.035156 27.28125 57.058594 25.117188 L 56.628906 23.589844 C 56.464844 23 55.746094 22.839844 54.972656 22.898438 C 47.03125 24.109375 43.546875 22.089844 43.519531 18.296875 C 43.488281 13.765625 48.976562 12.941406 54.976562 13.765625 C 55.660156 13.855469 56.382812 13.710938 56.59375 13.070312 L 57.113281 11.496094 "/>
<g clip-path="url(#clip1)" clip-rule="nonzero">
<path style=" stroke:none;fill-rule:evenodd;fill:rgb(78.140259%,9.883118%,23.38562%);fill-opacity:1;" d="M 104.632812 30.996094 C 107.570312 30.082031 114.625 25.441406 122.117188 21.214844 C 128.523438 17.601562 135.121094 14.359375 139.898438 15.84375 C 139.933594 4.132812 105.355469 30.011719 104.632812 30.996094 "/>
</g>
<path style=" stroke:none;fill-rule:evenodd;fill:rgb(15.214539%,25.061035%,54.411316%);fill-opacity:1;" d="M 66.226562 20.199219 L 74.027344 20.199219 L 70.136719 13.652344 Z M 81.335938 25.652344 L 71.808594 10.855469 L 68.476562 10.859375 L 58.941406 25.652344 L 62.222656 25.65625 C 62.894531 25.65625 63.398438 24.917969 63.738281 24.347656 L 64.816406 22.546875 L 75.417969 22.546875 L 76.492188 24.347656 C 76.855469 24.960938 77.476562 25.652344 78.183594 25.652344 L 81.335938 25.652344 "/>
<path style=" stroke:none;fill-rule:evenodd;fill:rgb(15.214539%,25.061035%,54.411316%);fill-opacity:1;" d="M 23.921875 20.199219 L 31.722656 20.199219 L 27.835938 13.652344 Z M 39.03125 25.652344 L 29.507812 10.855469 L 26.171875 10.859375 L 16.640625 25.652344 L 19.925781 25.65625 C 20.589844 25.65625 21.097656 24.917969 21.441406 24.347656 L 22.519531 22.546875 L 33.121094 22.546875 L 34.191406 24.347656 C 34.550781 24.960938 35.171875 25.652344 35.890625 25.652344 L 39.03125 25.652344 "/>
<path style=" stroke:none;fill-rule:evenodd;fill:rgb(15.214539%,25.061035%,54.411316%);fill-opacity:1;" d="M 20.621094 10.855469 L 1.554688 10.855469 L 0 13.441406 L 8.230469 13.449219 L 8.230469 25.65625 L 11.859375 25.65625 L 11.867188 13.476562 L 17.636719 13.46875 C 18.515625 13.46875 19.328125 12.726562 19.828125 12.007812 L 20.621094 10.855469 "/>
<path style=" stroke:none;fill-rule:evenodd;fill:rgb(78.140259%,9.883118%,23.38562%);fill-opacity:1;" d="M 135.199219 11.96875 C 127.4375 10.96875 112.40625 18.960938 97.726562 29.574219 C 81.847656 41.855469 62.882812 54.894531 55.6875 59 C 61.574219 57.398438 80.234375 48.269531 98.1875 33.53125 C 117.824219 18.585938 126.300781 13.589844 135.199219 11.96875 "/>
<path style=" stroke:none;fill-rule:evenodd;fill:rgb(78.140259%,9.883118%,23.38562%);fill-opacity:1;" d="M 65.765625 45.433594 C 70.886719 45.882812 77.074219 42.738281 85.570312 36.925781 C 94.980469 30.492188 103.574219 24.453125 104.847656 23.085938 C 103.199219 23.9375 93.871094 29.730469 84.730469 35.011719 C 75.585938 40.289062 66.339844 44.652344 65.765625 45.433594 "/>
</g>
</svg>

<svg xmlns="http://www.w3.org/2000/svg" width="139.9pt" height="59pt" viewBox="0 0 139.9 59"><defs><clipPath id="a"><path d="M104 12h35.898v19H104Zm0 0"/></clipPath></defs><path d="M117.145 11.012C107.152 9.152 96.969 5.21 88.605 0c1.102 9.781 21.243 11.652 28.54 11.012" style="stroke:none;fill-rule:evenodd;fill:#77253a;fill-opacity:1"/><path d="M101.656 14.633c4.332.117 16.465-1.442 19.668-2.824-8.91.558-13.66.707-18.844.23-5.175-.473-9.664-.355-16.78-2.52 1.925 4.383 10.35 5.114 15.956 5.114M93.629 22.164c.965 2.563 15.875-3.637 17.023-4.082 1.63-.637 14.125-5.98 15.36-6.113-1.801-.422-12.82 3.21-19.266 5.32-1.844.602-11.89 4.297-13.117 4.875" style="stroke:none;fill-rule:evenodd;fill:#c7193c;fill-opacity:1"/><path d="M57.113 11.496c-7.133-1.855-17.18-1.125-17.172 6.8.004 7.036 8.094 8.985 17.118 6.821l-.43-1.527c-.164-.59-.883-.75-1.656-.692-7.942 1.211-11.426-.808-11.453-4.601-.032-4.531 5.457-5.356 11.457-4.531.683.09 1.406-.055 1.617-.696z" style="stroke:none;fill-rule:evenodd;fill:#27408b;fill-opacity:1"/><g clip-path="url(#a)"><path d="M104.633 30.996c2.937-.914 9.992-5.555 17.484-9.781 6.406-3.613 13.004-6.856 17.781-5.371.036-11.711-34.543 14.168-35.265 15.152" style="stroke:none;fill-rule:evenodd;fill:#c7193c;fill-opacity:1"/></g><path d="M66.227 20.2h7.8l-3.89-6.548Zm15.109 5.452-9.527-14.797-3.332.004-9.536 14.793 3.282.004c.672 0 1.175-.738 1.515-1.308l1.078-1.801h10.602l1.074 1.8c.363.614.985 1.305 1.692 1.305zM23.922 20.2h7.8l-3.886-6.548Zm15.11 5.452-9.524-14.797-3.336.004-9.531 14.793 3.285.004c.664 0 1.172-.738 1.515-1.308l1.079-1.801H33.12l1.07 1.8c.36.614.98 1.305 1.7 1.305zM20.621 10.855H1.555L0 13.441l8.23.008v12.207h3.63l.007-12.18 5.77-.007c.879 0 1.691-.742 2.191-1.461z" style="stroke:none;fill-rule:evenodd;fill:#27408b;fill-opacity:1"/><path d="M135.2 11.969c-7.762-1-22.794 6.992-37.473 17.605C81.847 41.855 62.883 54.894 55.687 59c5.887-1.602 24.547-10.73 42.5-25.469C117.825 18.586 126.302 13.59 135.2 11.97M65.766 45.434c5.12.449 11.308-2.696 19.804-8.508 9.41-6.434 18.004-12.473 19.278-13.84-1.649.852-10.977 6.644-20.118 11.926-9.144 5.277-18.39 9.64-18.964 10.422" style="stroke:none;fill-rule:evenodd;fill:#c7193c;fill-opacity:1"/></svg>
